icons/iOSTrash.svg

<svg width="24" height="24" viewBox="0 0 24 24" fill="none" xmlns="http://www.w3.org/2000/svg">
<path d="M7.87238 23H16.1366C17.5902 23 18.5145 22.095 18.5773 20.5256L19.1785 6.76718H20.0937C20.6052 6.76718 21 6.35317 21 5.80438C21 5.26521 20.6052 4.8512 20.0937 4.8512H16.1904V3.43589C16.1904 1.8954 15.2841 1 13.7049 1H10.2861C8.69791 1 7.79163 1.8954 7.79163 3.43589V4.8512H3.90628C3.40379 4.8512 3 5.26521 3 5.80438C3 6.35317 3.40379 6.76718 3.90628 6.76718H4.82154L5.42273 20.5352C5.49452 22.1046 6.4008 23 7.87238 23ZM9.667 3.51291C9.667 3.06039 9.95414 2.77155 10.4207 2.77155H13.5703C14.0279 2.77155 14.324 3.06039 14.324 3.51291V4.8512H9.667V3.51291ZM8.09671 21.0648C7.61216 21.0648 7.28016 20.6893 7.26221 20.1212L6.66999 6.76718H17.3031L16.7378 20.1212C16.7198 20.6989 16.3878 21.0648 15.8943 21.0648H8.09671ZM9.36191 19.5917C9.78365 19.5917 10.0439 19.3028 10.0349 18.8888L9.7657 8.99125C9.75673 8.57724 9.47856 8.29803 9.08375 8.29803C8.67996 8.29803 8.41974 8.57724 8.42871 9.00088L8.69791 18.8985C8.71585 19.3125 8.97607 19.5917 9.36191 19.5917ZM12 19.5917C12.4038 19.5917 12.673 19.3125 12.673 18.8985V8.99125C12.673 8.57724 12.4038 8.29803 12 8.29803C11.5962 8.29803 11.327 8.57724 11.327 8.99125V18.8985C11.327 19.3125 11.5962 19.5917 12 19.5917ZM14.6381 19.5917C15.0239 19.5917 15.2841 19.3125 15.3021 18.8985L15.5713 9.00088C15.5803 8.58687 15.32 8.30766 14.9163 8.30766C14.5214 8.30766 14.2433 8.57724 14.2343 8.99125L13.9651 18.8888C13.9561 19.3028 14.2164 19.5917 14.6381 19.5917Z" fill="black"/>
</svg>

<svg xmlns="http://www.w3.org/2000/svg" viewBox="0 0 24 24">
  <path d="M7.872 23h8.265c1.453 0 2.378-.905 2.44-2.474l.601-13.759h.916c.511 0 .906-.414.906-.963 0-.539-.395-.953-.906-.953H16.19V3.436c0-1.54-.906-2.436-2.485-2.436h-3.419c-1.588 0-2.494.895-2.494 2.436V4.85H3.906c-.502 0-.906.414-.906.953 0 .55.404.963.906.963h.916l.6 13.768c.073 1.57.979 2.465 2.45 2.465zM9.667 3.513c0-.453.287-.741.754-.741h3.15c.457 0 .753.288.753.74v1.34H9.667v-1.34zm-1.57 17.552c-.485 0-.817-.376-.835-.944L6.67 6.767h10.633l-.565 13.354c-.018.578-.35.944-.844.944H8.097zm1.265-1.473c.422 0 .682-.29.673-.703l-.27-9.898c-.008-.414-.286-.693-.681-.693-.404 0-.664.28-.655.703l.269 9.897c.018.415.278.694.664.694zm2.638 0c.404 0 .673-.28.673-.694V8.991c0-.414-.27-.693-.673-.693-.404 0-.673.28-.673.693v9.907c0 .415.27.694.673.694zm2.638 0c.386 0 .646-.28.664-.694l.27-9.897c.008-.414-.252-.693-.656-.693-.395 0-.673.27-.682.683l-.269 9.898c-.009.414.251.703.673.703z"/>
</svg>
